X: 52
T: THE CASTLE OF DROMORE
B: O'Neill's 52
M: 6/8
L: 1/8
Z: 1999 by John Chambers <jc@trillian.mit.edu>
N: "With feeling"
N: "Collected by J.O'Neill"
K:D
(F/G/) \
| A2A A2A | B2A (AB).c | d2G F2G | A3- A2(B/c/) |
| d2D D2D | E2D (DE).F | G2B A2G | F3- F2(B/c/) ||
| (de).d (cd).c | (Bc).B A2G | F2A (GF).E | D3 F2A |
| GAG E2G | FGA D2F | G2E D2C | D3- D2 ||


